images/profile-info-instruments-icon-4.svg

<svg width="24" height="24" viewBox="0 0 24 24" fill="none" xmlns="http://www.w3.org/2000/svg">
<g id="instruments" clip-path="url(#clip0_131_8418)">
<g id="Group">
<path id="Vector" d="M4.25002 0.299805H19.75C22.1 0.299805 24 2.19979 24 4.54982V19.4498C24 21.7998 22.1 23.6999 19.75 23.6999H4.25002C1.89998 23.6998 0 21.7998 0 19.4498V4.54982C0 2.19979 1.89998 0.299805 4.25002 0.299805Z" fill="#390000"/>
<g id="Group_2">
<path id="Vector_2" d="M11.63 14.3396H7.91L7.15002 16.6896C7.13 16.7796 7.05003 16.8396 6.96003 16.8296H5.08002C4.97 16.8296 4.94 16.7696 4.97 16.6496L8.18999 7.37958C8.21999 7.2796 8.24998 7.16958 8.28997 7.04958C8.32995 6.83958 8.34997 6.6196 8.34997 6.39957C8.33999 6.34955 8.37997 6.29958 8.42999 6.28955H8.45999H11.02C11.1 6.28955 11.14 6.31955 11.15 6.36957L14.8 16.6696C14.83 16.7796 14.8 16.8295 14.7 16.8295H12.61C12.54 16.8395 12.47 16.7895 12.45 16.7195L11.63 14.3396ZM8.48998 12.3096H11.03L9.74999 8.13957L8.48998 12.3096Z" fill="#FF9A00"/>
<path id="Vector_3" d="M16.98 7.99981C16.65 8.00979 16.33 7.87981 16.09 7.64979C15.8599 7.39981 15.7399 7.06981 15.75 6.72978C15.74 6.38979 15.87 6.06978 16.11 5.83976C16.35 5.60975 16.67 5.48975 17 5.48975C17.39 5.48975 17.69 5.60975 17.91 5.83976C18.13 6.07976 18.25 6.39978 18.24 6.72978C18.25 7.06976 18.13 7.39976 17.89 7.64979C17.66 7.88979 17.32 8.01978 16.98 7.99981Z" fill="#FF9A00"/>
<path id="Vector_4" d="M15.86 16.6799V8.97986C15.86 8.87987 15.9 8.83984 15.99 8.83984H17.97C18.06 8.83984 18.1 8.88986 18.1 8.97986V16.6799C18.1 16.7899 18.06 16.8399 17.97 16.8399H16.01C15.91 16.8399 15.86 16.7799 15.86 16.6799Z" fill="#FF9A00"/>
</g>
</g>
</g>
<defs>
<clipPath id="clip0_131_8418">
<rect width="24" height="24" fill="white"/>
</clipPath>
</defs>
</svg>

<svg width="24" height="24" fill="none" xmlns="http://www.w3.org/2000/svg"><g id="instruments" clip-path="url(#clip0_131_8418)"><g id="Group"><path id="Vector" d="M4.25.3h15.5C22.1.3 24 2.2 24 4.55v14.9c0 2.35-1.9 4.25-4.25 4.25H4.25C1.9 23.7 0 21.8 0 19.45V4.55C0 2.2 1.9.3 4.25.3z" fill="#390000"/><g id="Group_2" fill="#FF9A00"><path id="Vector_2" d="M11.63 14.34H7.91l-.76 2.35c-.02.09-.1.15-.19.14H5.08c-.11 0-.14-.06-.11-.18l3.22-9.27c.03-.1.06-.21.1-.33.04-.21.06-.43.06-.65-.01-.05.03-.1.08-.11h2.59c.08 0 .12.03.13.08l3.65 10.3c.03.11 0 .16-.1.16h-2.09c-.07.01-.14-.04-.16-.11l-.82-2.38zm-3.14-2.03h2.54L9.75 8.14l-1.26 4.17z"/><path id="Vector_3" d="M16.98 8c-.33.01-.65-.12-.89-.35a1.3 1.3 0 01-.34-.92c-.01-.34.12-.66.36-.89.24-.23.56-.35.89-.35.39 0 .69.12.91.35.22.24.34.56.33.89.01.34-.11.67-.35.92-.23.24-.57.37-.91.35z"/><path id="Vector_4" d="M15.86 16.68v-7.7c0-.1.04-.14.13-.14h1.98c.09 0 .13.05.13.14v7.7c0 .11-.04.16-.13.16h-1.96c-.1 0-.15-.06-.15-.16z"/></g></g></g><defs><clipPath id="clip0_131_8418"><path fill="#fff" d="M0 0h24v24H0z"/></clipPath></defs></svg>
